X:1
T:Title
%%score { ( 1 3 ) | ( 2 4 ) }
L:1/8
Q:1/4=90
M:6/8
K:Bb
V:1 treble nm="Grand Piano"
V:3 treble 
V:2 bass 
V:4 bass 
V:1
 BGE [DF][CE][DF] | GBB B2 B | edc BGE | [DF]3- [DF]2 [DF] | GGG [FB][FB][FB] | %5
w: J.~W.~Lerman * * * * *|||||
 [Fe][Fe][Fe] [Fd]2 [Gc] | BcB AGA | [DB]6 | [GB]2 [Ge] [^Fd]2 [Fc] | [FB][Fc][F_A] [FA]2 [EG] | %10
w: |||||
 [FB][FB][FB] [Fc][Fc][Fc] | [Fd]6 | e2 [Gd] [^Fc]2 [B,GB] | [_D=EB][CFc][CF_A] [B,CG]2 [_A,CF] | %14
w: ||||
 [G,B,E][F,B,D][K:treble][G,B,E] [CE_A][B,DG][_A,DF] | %15
w: |
 E6[Q:1/4=89][Q:1/4=87][Q:1/4=86][Q:1/4=85][Q:1/4=83][Q:1/4=82][Q:1/4=81][Q:1/4=79][Q:1/4=78][Q:1/4=77][Q:1/4=75][Q:1/4=74][Q:1/4=73][Q:1/4=71][Q:1/4=70][Q:1/4=69] |] %16
w: |
V:2
 [E,G,E][E,B,E][E,G,] [B,,_A,][C,G,][B,,B,] | [E,B,E][E,G,E][E,G,E] [E,G,E]2 [E,G,E] | %2
 [E,CE][E,B,E][E,_A,E] [E,G,E][E,B,E][F,=A,C] | [B,,B,]3- [B,,B,]2 [B,,B,] | %4
 [E,B,E][E,B,E][E,B,E] [D,B,][D,B,][D,B,] | [C,A,][C,A,][C,A,] [B,,B,]2 [E,G,] | %6
 [F,DF][F,EF][F,DF] [F,CE][F,B,E][F,CE] | [B,,B,]6 | [E,B,]2 [E,B,] [E,A,]2 [E,A,] | %9
 [D,B,][D,B,][B,,B,] [E,B,]2 [E,B,] | [D,B,][D,B,][D,B,] [C,A,][C,A,][C,A,] | B,3 z3 | %12
 [E,G,E]2 [E,B,] [E,A,]2 E, | G,_A,F, _A,,2 A,, | B,,B,,B,, B,,B,,B,, | z B,_A, .G,3 |] %16
V:3
 x6 | x6 | x6 | x6 | x6 | x6 | x6 | x6 | x6 | x6 | x6 | z3 _A,3 | x6 | x6 | x2[K:treble] x4 | %15
 G,DC .B,3 |] %16
V:4
 x6 | x6 | x6 | x6 | x6 | x6 | x6 | x6 | x6 | x6 | x6 | B,,6 | x6 | x6 | x6 | E,6 |] %16

